actions/16/package-new.svg

<svg xmlns="http://www.w3.org/2000/svg" viewBox="0 0 16 16">
  <defs id="defs3051">
    <style type="text/css" id="current-color-scheme">
      .ColorScheme-Text {
        color:#808080;
      }
      </style>
  </defs>
  <g transform="translate(-421.71-531.79)">
 <path style="fill:currentColor;fill-opacity:1;stroke:none" 
     d="m435.71 543.29l-1.345.478.613 1.289-1.289-.613-.478 1.345-.478-1.345-1.289.613.613-1.289-1.345-.478 1.345-.478-.613-1.289 1.289.613.478-1.345.478 1.345 1.289-.613-.613 1.289z"
     class="ColorScheme-Text"
     />
  <path d="m426.71429 533.79074a1 1 0 0 0 -1 1v2h-2v9h7v-1h-6v-7h10v3h1v-4h-2v-2a1 1 0 0 0 -1 -1zm0 1h6v2h-6z" 
        style="fill:currentColor;fill-opacity:1;stroke:none" 
        class="ColorScheme-Text"
     />
</g>
</svg>

<svg xmlns="http://www.w3.org/2000/svg" version="1.1" viewBox="0 0 16 16">
 <defs>
  <style id="current-color-scheme" type="text/css">
   .ColorScheme-Text { color:#808080; }
  </style>
 </defs>
 <g transform="translate(-421.71,-531.79)">
  <path class="ColorScheme-Text" d="M 435.71,543.29 434.36,543.77 434.98,545.06 433.69,544.44 433.21,545.79 432.73,544.44 431.44,545.06 432.06,543.77 430.71,543.29 432.06,542.81 431.44,541.52 432.73,542.14 433.21,540.79 433.69,542.14 434.98,541.52 434.36,542.81 Z" style="color:#808080;fill:currentColor"/>
  <path class="ColorScheme-Text" d="M 426.71,533.79 A 1,1 0 0 0 425.71,534.79 V 536.79 H 423.71 V 545.79 H 430.71 V 544.79 H 424.71 V 537.79 H 434.71 V 540.79 H 435.71 V 536.79 H 433.71 V 534.79 A 1,1 0 0 0 432.71,533.79 Z M 426.71,534.79 H 432.71 V 536.79 H 426.71 Z" style="color:#808080;fill:currentColor"/>
 </g>
</svg>
